assets/icons/qvision/replay_30.svg

<svg xmlns="http://www.w3.org/2000/svg" enable-background="new 0 0 24 24" height="24" viewBox="0 0 24 24" width="24"><g><rect fill="none" height="24" width="24"/></g><g><g><path d="M12,5V1L7,6l5,5V7c3.31,0,6,2.69,6,6s-2.69,6-6,6s-6-2.69-6-6H4c0,4.42,3.58,8,8,8s8-3.58,8-8S16.42,5,12,5z"/><g><path d="M9.56,13.49h0.45c0.21,0,0.37-0.05,0.48-0.16s0.16-0.25,0.16-0.43c0-0.08-0.01-0.15-0.04-0.22s-0.06-0.12-0.11-0.17 s-0.11-0.09-0.18-0.11s-0.16-0.04-0.25-0.04c-0.08,0-0.15,0.01-0.22,0.03s-0.13,0.05-0.18,0.1s-0.09,0.09-0.12,0.15 s-0.05,0.13-0.05,0.2H8.65c0-0.18,0.04-0.34,0.11-0.48s0.17-0.27,0.3-0.37s0.27-0.18,0.44-0.23s0.35-0.08,0.54-0.08 c0.21,0,0.41,0.03,0.59,0.08s0.33,0.13,0.46,0.23s0.23,0.23,0.3,0.38s0.11,0.33,0.11,0.53c0,0.09-0.01,0.18-0.04,0.27 s-0.07,0.17-0.13,0.25s-0.12,0.15-0.2,0.22s-0.17,0.12-0.28,0.17c0.24,0.09,0.42,0.21,0.54,0.39s0.18,0.38,0.18,0.61 c0,0.2-0.04,0.38-0.12,0.53s-0.18,0.29-0.32,0.39s-0.29,0.19-0.48,0.24s-0.38,0.08-0.6,0.08c-0.18,0-0.36-0.02-0.53-0.07 s-0.33-0.12-0.46-0.23s-0.25-0.23-0.33-0.38s-0.12-0.34-0.12-0.55h0.85c0,0.08,0.02,0.15,0.05,0.22s0.07,0.12,0.13,0.17 s0.12,0.09,0.2,0.11s0.16,0.04,0.25,0.04c0.1,0,0.19-0.01,0.27-0.04s0.15-0.07,0.2-0.12s0.1-0.11,0.13-0.18s0.04-0.15,0.04-0.24 c0-0.11-0.02-0.21-0.05-0.29s-0.08-0.15-0.14-0.2s-0.13-0.09-0.22-0.11s-0.18-0.04-0.29-0.04H9.56V13.49z"/><path d="M15.3,14.24c0,0.32-0.03,0.6-0.1,0.82s-0.17,0.42-0.29,0.57s-0.28,0.26-0.45,0.33s-0.37,0.1-0.59,0.1 s-0.41-0.03-0.59-0.1s-0.33-0.18-0.46-0.33s-0.23-0.34-0.3-0.57s-0.11-0.5-0.11-0.82V13.5c0-0.32,0.03-0.6,0.1-0.82 s0.17-0.42,0.29-0.57s0.28-0.26,0.45-0.33s0.37-0.1,0.59-0.1s0.41,0.03,0.59,0.1s0.33,0.18,0.46,0.33s0.23,0.34,0.3,0.57 s0.11,0.5,0.11,0.82V14.24z M14.45,13.38c0-0.19-0.01-0.35-0.04-0.48c-0.03-0.13-0.07-0.23-0.12-0.31s-0.11-0.14-0.19-0.17 s-0.16-0.05-0.25-0.05s-0.18,0.02-0.25,0.05s-0.14,0.09-0.19,0.17s-0.09,0.18-0.12,0.31s-0.04,0.29-0.04,0.48v0.97 c0,0.19,0.01,0.35,0.04,0.48s0.07,0.24,0.12,0.32s0.11,0.14,0.19,0.17s0.16,0.05,0.25,0.05s0.18-0.02,0.25-0.05 s0.14-0.09,0.19-0.17s0.09-0.19,0.11-0.32c0.03-0.13,0.04-0.29,0.04-0.48V13.38z"/></g></g></g></svg>

<svg width="24" height="24" viewBox="0 0 24 24" fill="none" xmlns="http://www.w3.org/2000/svg">
<g clip-path="url(#clip0_147_1615)">
<path d="M12 5V1L7 6L12 11V7C15.31 7 18 9.69 18 13C18 16.31 15.31 19 12 19C8.69 19 6 16.31 6 13H4C4 17.42 7.58 21 12 21C16.42 21 20 17.42 20 13C20 8.58 16.42 5 12 5Z" fill="#323232"/>
<path d="M9.55999 13.49H10.01C10.22 13.49 10.38 13.44 10.49 13.33C10.6 13.22 10.65 13.08 10.65 12.9C10.65 12.82 10.64 12.75 10.61 12.68C10.58 12.61 10.55 12.56 10.5 12.51C10.45 12.46 10.39 12.42 10.32 12.4C10.25 12.38 10.16 12.36 10.07 12.36C9.98999 12.36 9.91999 12.37 9.84999 12.39C9.77999 12.41 9.71999 12.44 9.66999 12.49C9.61999 12.54 9.57999 12.58 9.54999 12.64C9.51999 12.7 9.49999 12.77 9.49999 12.84H8.64999C8.64999 12.66 8.68999 12.5 8.75999 12.36C8.82999 12.22 8.92999 12.09 9.05999 11.99C9.18999 11.89 9.32999 11.81 9.49999 11.76C9.66999 11.71 9.84999 11.68 10.04 11.68C10.25 11.68 10.45 11.71 10.63 11.76C10.81 11.81 10.96 11.89 11.09 11.99C11.22 12.09 11.32 12.22 11.39 12.37C11.46 12.52 11.5 12.7 11.5 12.9C11.5 12.99 11.49 13.08 11.46 13.17C11.43 13.26 11.39 13.34 11.33 13.42C11.27 13.5 11.21 13.57 11.13 13.64C11.05 13.71 10.96 13.76 10.85 13.81C11.09 13.9 11.27 14.02 11.39 14.2C11.51 14.38 11.57 14.58 11.57 14.81C11.57 15.01 11.53 15.19 11.45 15.34C11.37 15.49 11.27 15.63 11.13 15.73C10.99 15.83 10.84 15.92 10.65 15.97C10.46 16.02 10.27 16.05 10.05 16.05C9.86999 16.05 9.68999 16.03 9.51999 15.98C9.34999 15.93 9.18999 15.86 9.05999 15.75C8.92999 15.64 8.80999 15.52 8.72999 15.37C8.64999 15.22 8.60999 15.03 8.60999 14.82H9.45999C9.45999 14.9 9.47999 14.97 9.50999 15.04C9.53999 15.11 9.57999 15.16 9.63999 15.21C9.69999 15.26 9.75999 15.3 9.83999 15.32C9.91999 15.34 9.99999 15.36 10.09 15.36C10.19 15.36 10.28 15.35 10.36 15.32C10.44 15.29 10.51 15.25 10.56 15.2C10.61 15.15 10.66 15.09 10.69 15.02C10.72 14.95 10.73 14.87 10.73 14.78C10.73 14.67 10.71 14.57 10.68 14.49C10.65 14.41 10.6 14.34 10.54 14.29C10.48 14.24 10.41 14.2 10.32 14.18C10.23 14.16 10.14 14.14 10.03 14.14H9.55999V13.49Z" fill="#323232"/>
<path d="M15.3 14.24C15.3 14.56 15.27 14.84 15.2 15.06C15.13 15.28 15.03 15.48 14.91 15.63C14.79 15.78 14.63 15.89 14.46 15.96C14.29 16.03 14.09 16.06 13.87 16.06C13.65 16.06 13.46 16.03 13.28 15.96C13.1 15.89 12.95 15.78 12.82 15.63C12.69 15.48 12.59 15.29 12.52 15.06C12.45 14.83 12.41 14.56 12.41 14.24V13.5C12.41 13.18 12.44 12.9 12.51 12.68C12.58 12.46 12.68 12.26 12.8 12.11C12.92 11.96 13.08 11.85 13.25 11.78C13.42 11.71 13.62 11.68 13.84 11.68C14.06 11.68 14.25 11.71 14.43 11.78C14.61 11.85 14.76 11.96 14.89 12.11C15.02 12.26 15.12 12.45 15.19 12.68C15.26 12.91 15.3 13.18 15.3 13.5V14.24ZM14.45 13.38C14.45 13.19 14.44 13.03 14.41 12.9C14.38 12.77 14.34 12.67 14.29 12.59C14.24 12.51 14.18 12.45 14.1 12.42C14.02 12.39 13.94 12.37 13.85 12.37C13.76 12.37 13.67 12.39 13.6 12.42C13.53 12.45 13.46 12.51 13.41 12.59C13.36 12.67 13.32 12.77 13.29 12.9C13.26 13.03 13.25 13.19 13.25 13.38V14.35C13.25 14.54 13.26 14.7 13.29 14.83C13.32 14.96 13.36 15.07 13.41 15.15C13.46 15.23 13.52 15.29 13.6 15.32C13.68 15.35 13.76 15.37 13.85 15.37C13.94 15.37 14.03 15.35 14.1 15.32C14.17 15.29 14.24 15.23 14.29 15.15C14.34 15.07 14.38 14.96 14.4 14.83C14.43 14.7 14.44 14.54 14.44 14.35V13.38H14.45Z" fill="#323232"/>
</g>
<defs>
<clipPath id="clip0_147_1615">
<rect width="24" height="24" fill="white"/>
</clipPath>
</defs>
</svg>
